X: 41223
T: Tros Y Garreg
R: jig
M: 6/8
K: Aminor
|:A2A ^GFE|ABA B3|c2B BAG|cdc d3|
e2e efe|d2d de^g|a2e fed|cdB A3:|
ede cde|d2c B3|c2c ABc|BEE E3|
ede cde|d2c B3|c2c ABc|BEE E3|
A2A ^GFE|ABA B3|c2B BAG|cdc d3|
e2e efe|d2d de^g|a2e fed|cdB A3|

